assets/spark/icons/InstagramFill.svg

<svg viewBox="0 0 24 24" xmlns="http://www.w3.org/2000/svg">
<path fill-rule="evenodd" clip-rule="evenodd" d="M12 2C9.28412 2 8.94362 2.01151 7.87701 2.06018C6.81259 2.10876 6.08569 2.27779 5.44958 2.52501C4.79199 2.78056 4.23432 3.1225 3.67839 3.67843C3.12246 4.23436 2.78052 4.79203 2.52497 5.44962C2.27775 6.08573 2.10872 6.81263 2.06014 7.87705C2.01147 8.94362 2 9.28416 2 12C2 14.7159 2.01147 15.0564 2.06014 16.123C2.10872 17.1874 2.27775 17.9143 2.52497 18.5504C2.78052 19.208 3.12246 19.7657 3.67839 20.3216C4.23432 20.8775 4.79199 21.2195 5.44958 21.475C6.08569 21.7223 6.81259 21.8913 7.87701 21.9399C8.94362 21.9885 9.28412 22 12 22C14.7158 22 15.0564 21.9885 16.1229 21.9399C17.1874 21.8913 17.9143 21.7223 18.5504 21.475C19.208 21.2195 19.7656 20.8775 20.3216 20.3216C20.8775 19.7657 21.2194 19.208 21.475 18.5504C21.7222 17.9143 21.8912 17.1874 21.9398 16.123C21.9885 15.0564 22 14.7159 22 12C22 9.28416 21.9885 8.94362 21.9398 7.87705C21.8912 6.81263 21.7222 6.08573 21.475 5.44962C21.2194 4.79203 20.8775 4.23436 20.3216 3.67843C19.7656 3.1225 19.208 2.78056 18.5504 2.52501C17.9143 2.27779 17.1874 2.10876 16.1229 2.06018C15.0564 2.01151 14.7158 2 12 2ZM12 6.86487C9.16393 6.86487 6.86483 9.16397 6.86483 12C6.86483 14.8361 9.16393 17.1352 12 17.1352C14.836 17.1352 17.1351 14.8361 17.1351 12C17.1351 9.16397 14.836 6.86487 12 6.86487ZM12 15.3334C10.159 15.3334 8.66663 13.841 8.66663 12C8.66663 10.1591 10.159 8.66667 12 8.66667C13.8409 8.66667 15.3333 10.1591 15.3333 12C15.3333 13.841 13.8409 15.3334 12 15.3334ZM18.538 6.66199C18.538 7.32474 18.0008 7.86201 17.338 7.86201C16.6753 7.86201 16.138 7.32474 16.138 6.66199C16.138 5.99924 16.6753 5.462 17.338 5.462C18.0008 5.462 18.538 5.99924 18.538 6.66199Z" />
</svg>

<svg viewBox="0 0 24 24" xmlns="http://www.w3.org/2000/svg">
  <path d="m12,2c-2.72,0-3.06.01-4.12.06-1.06.05-1.79.22-2.43.46-.66.26-1.22.6-1.77,1.15s-.9,1.11-1.15,1.77c-.25.64-.42,1.36-.46,2.43-.05,1.07-.06,1.41-.06,4.12s.01,3.06.06,4.12c.05,1.06.22,1.79.46,2.43.26.66.6,1.22,1.15,1.77s1.11.9,1.77,1.15c.64.25,1.36.42,2.43.46,1.07.05,1.41.06,4.12.06s3.06-.01,4.12-.06c1.06-.05,1.79-.22,2.43-.46.66-.26,1.22-.6,1.77-1.15.56-.56.9-1.11,1.15-1.77.25-.64.42-1.36.46-2.43.05-1.07.06-1.41.06-4.12s-.01-3.06-.06-4.12c-.05-1.06-.22-1.79-.46-2.43-.26-.66-.6-1.22-1.15-1.77-.56-.56-1.11-.9-1.77-1.15-.64-.25-1.36-.42-2.43-.46-1.07-.05-1.41-.06-4.12-.06Zm0,4.86c-2.84,0-5.14,2.3-5.14,5.14s2.3,5.14,5.14,5.14,5.14-2.3,5.14-5.14-2.3-5.14-5.14-5.14Zm0,8.47c-1.84,0-3.33-1.49-3.33-3.33s1.49-3.33,3.33-3.33,3.33,1.49,3.33,3.33-1.49,3.33-3.33,3.33Zm6.54-8.67c0,.66-.54,1.2-1.2,1.2s-1.2-.54-1.2-1.2.54-1.2,1.2-1.2,1.2.54,1.2,1.2Z"/>
</svg>
